X: 2
T: Trondheimsfjorden
R: reel
M: 4/4
L: 1/8
K: Gmaj
GBdg fgdg|fedc BGAB|c3e dBGB|AGFE DEFA|
GBdg fgdg|fedc BGAB|c3e dBga|b2 g2 g4:|
|:ecGf dA(g2|g)gfe dGAB|c3e de(f2|f)fef gagf|
[1 ecGf dA(g2|g)gfe dGAB|c3e defg|agfe gfed:|
[2 ecGf dA(g2|g)gfe dGAB|cGga b3c'|b2 g2 g4||

